icons/1_Primary/Rocket.Chat.svg

<svg width="1024" height="1024" fill="none" xmlns="http://www.w3.org/2000/svg"><g clip-path="url(#a)"><path d="M512 1024c282.77 0 512-229.23 512-512S794.77 0 512 0 0 229.23 0 512s229.23 512 512 512Z" fill="#FF837D"/><path d="M318.28 270.47c-20.1.22-40.03 3.82-58.94 10.65a13.448 13.448 0 0 0-5.38 3.69 13.527 13.527 0 0 0-3 5.79c-.51 2.15-.48 4.39.09 6.52s1.65 4.09 3.16 5.71c19.38 20.33 51.56 60.41 43.67 96.71A157.13 157.13 0 0 0 250.5 509.1c.61 41.59 17.64 81.24 47.38 110.32 7.9 36.38-24.2 76.4-43.59 96.73-5.06 5.39-4.79 13.85.6 18.91 1.31 1.23 2.85 2.18 4.54 2.8a179.504 179.504 0 0 0 143.71-9.51 221.162 221.162 0 0 0 45.82-34.17 373.312 373.312 0 0 0 66.64 5.93 329.793 329.793 0 0 0 181.03-50.4 203.163 203.163 0 0 0 59.74-59.44c32.18-49.06 32.18-112.54 0-161.6l-.02.06c-15.58-23.77-35.97-44-59.86-59.4a329.912 329.912 0 0 0-181.03-50.42c-22.35-.03-44.65 1.96-66.64 5.92a220.478 220.478 0 0 0-45.78-34.15 179.497 179.497 0 0 0-84.75-20.2l-.01-.01Zm194.43 101.71c118.98 0 215.51 62.89 215.51 140.49 0 77.6-96.51 140.51-215.51 140.51a316.246 316.246 0 0 1-82.75-10.74l-18.61 18.1a170.232 170.232 0 0 1-34.37 25.66 133.908 133.908 0 0 1-48.6 13.82c.91-1.66 1.74-3.34 2.62-4.99a119.79 119.79 0 0 0 15.1-93.45 115.355 115.355 0 0 1-48.82-88.91c0-77.58 96.45-140.49 215.43-140.49ZM409.59 480.36a31.903 31.903 0 0 0-17.73 5.31 31.851 31.851 0 0 0-4.96 49.03 31.785 31.785 0 0 0 16.31 8.75 31.857 31.857 0 0 0 32.749-13.525 31.872 31.872 0 0 0 5.381-17.715c.01-8.43-3.32-16.53-9.27-22.51a31.83 31.83 0 0 0-22.47-9.36l-.01.02Zm102.29 0c-17.6-.06-31.92 14.16-31.98 31.75a31.881 31.881 0 0 0 7.185 20.26 31.879 31.879 0 0 0 18.415 11.09c17.26 3.46 34.05-7.73 37.5-24.99.41-2.06.62-4.15.62-6.25.03-17.56-14.18-31.83-31.74-31.86Zm102.17 0c-17.6-.09-31.93 14.1-32.03 31.69-.08 15.24 10.65 28.41 25.6 31.41 17.25 3.47 34.05-7.71 37.51-24.96.42-2.07.62-4.17.62-6.28a31.79 31.79 0 0 0-9.26-22.49 31.85 31.85 0 0 0-22.45-9.37h.01Z" fill="#fff"/></g><defs><clipPath id="a"><path fill="#fff" d="M0 0h1024v1024H0z"/></clipPath></defs></svg>

<svg width="1024" height="1024" viewBox="0 0 1024 1024" fill="none" xmlns="http://www.w3.org/2000/svg">
<g clip-path="url(#clip0_2_3363)">
<path d="M512 1024C794.77 1024 1024 794.77 1024 512C1024 229.23 794.77 0 512 0C229.23 0 0 229.23 0 512C0 794.77 229.23 1024 512 1024Z" fill="#FF837D"/>
<path d="M318.28 270.47C298.18 270.69 278.25 274.29 259.34 281.12C257.271 281.89 255.423 283.157 253.96 284.81C252.503 286.466 251.473 288.454 250.96 290.6C250.45 292.75 250.48 294.99 251.05 297.12C251.62 299.25 252.7 301.21 254.21 302.83C273.59 323.16 305.77 363.24 297.88 399.54C268.29 428.406 251.267 467.769 250.5 509.1C251.11 550.69 268.14 590.34 297.88 619.42C305.78 655.8 273.68 695.82 254.29 716.15C249.23 721.54 249.5 730 254.89 735.06C256.2 736.29 257.74 737.24 259.43 737.86C282.743 746.283 307.547 749.787 332.281 748.15C357.014 746.513 381.141 739.771 403.14 728.35C419.827 718.99 435.229 707.504 448.96 694.18C470.951 698.147 493.254 700.132 515.6 700.11C579.554 701.221 642.451 683.71 696.63 649.71C720.479 634.29 740.83 614.041 756.37 590.27C788.55 541.21 788.55 477.73 756.37 428.67L756.35 428.73C740.77 404.96 720.38 384.73 696.49 369.33C642.31 335.329 579.415 317.812 515.46 318.91C493.11 318.88 470.81 320.87 448.82 324.83C435.105 311.51 419.716 300.03 403.04 290.68C376.878 277.089 347.77 270.151 318.29 270.48L318.28 270.47ZM512.71 372.18C631.69 372.18 728.22 435.07 728.22 512.67C728.22 590.27 631.71 653.18 512.71 653.18C484.773 653.271 456.948 649.659 429.96 642.44L411.35 660.54C401.021 670.508 389.473 679.13 376.98 686.2C361.804 693.849 345.31 698.539 328.38 700.02C329.29 698.36 330.12 696.68 331 695.03C339.733 681.296 345.576 665.927 348.172 649.86C350.768 633.793 350.063 617.365 346.1 601.58C331.726 591.46 319.855 578.188 311.394 562.779C302.933 547.369 298.105 530.23 297.28 512.67C297.28 435.09 393.73 372.18 512.71 372.18ZM409.59 480.36C403.285 480.339 397.116 482.187 391.86 485.67C386.604 489.155 382.501 494.123 380.071 499.942C377.641 505.762 376.993 512.172 378.21 518.36C379.425 524.547 382.45 530.234 386.9 534.7C391.348 539.17 397.026 542.216 403.21 543.45C409.39 544.69 415.81 544.07 421.64 541.66C427.469 539.251 432.453 535.167 435.959 529.925C439.466 524.682 441.339 518.517 441.34 512.21C441.35 503.78 438.02 495.68 432.07 489.7C426.116 483.726 418.034 480.36 409.6 480.34L409.59 480.36ZM511.88 480.36C494.28 480.3 479.96 494.52 479.9 512.11C479.877 519.491 482.417 526.652 487.085 532.37C491.754 538.087 498.263 542.007 505.5 543.46C522.76 546.92 539.55 535.73 543 518.47C543.41 516.41 543.62 514.32 543.62 512.22C543.65 494.66 529.44 480.39 511.88 480.36ZM614.05 480.36C596.45 480.27 582.12 494.46 582.02 512.05C581.94 527.29 592.67 540.46 607.62 543.46C624.87 546.93 641.67 535.75 645.13 518.5C645.55 516.43 645.75 514.33 645.75 512.22C645.766 503.792 642.436 495.703 636.49 489.73C630.541 483.759 622.468 480.39 614.04 480.36H614.05Z" fill="white"/>
</g>
<defs>
<clipPath id="clip0_2_3363">
<rect width="1024" height="1024" fill="white"/>
</clipPath>
</defs>
</svg>
